X:1
T:Countless Mercies
T:Countless Mercies
T:Charles Hutchinson Gabriel
T:Flora Kirkland, 1899
T:Public Domain Courtesy of the Cyber Hymnal™
T:Public Domain Courtesy of the Cyber Hymnal™
C:Charles Hutchinson Gabriel
Z:Public Domain
Z:Courtesy of the Cyber Hymnal™
%%score ( 1 2 ) ( 3 4 )
L:1/8
Q:1/4=98
M:4/4
K:G
V:1 treble 
V:2 treble 
V:3 bass 
V:4 bass 
V:1
 [B,D]>[B,D] [B,E]>[CF] [DG]>[DF] [DG]>[FA] | [GB]2 [Gc]2 [Gd]4 | %2
w: 1.~Are you hea- vy la- den and with|sor- row tried?|
w: 2.~Think of hid- den dan- gers He hath|brought you thro’;|
w: 3.~Does your path- way dark- en ’neath a|cloud of fear?|
w: 4.~As He looks from Hea- ven now on|you and me,|
 [Ac]>[Ac] [Ac]>[GB] [FA]>[GB] [FA]>[EG] | [DF]2 [EG]2 A4 x/ | %4
w: Stop and look to Je- sus, help- er,|friend and guide!|
w: Think of all the bur- dens He hath|borne for you;|
w: Count your ma- ny mer- cies; dry each|bit- ter tear.|
w: Don’t you know He choos- eth what each|day shall be?|
 [B,D]>[B,D] [B,E]>[CF] [DG]>[DF] [DG]>[FA] | [GB]2 [Gc]2 [Gd]4 | %6
w: Think of all His mer- cies, such a|bound- less store!|
w: Count His words of com- fort in your|deep- est need;|
w: Ev- en ’mid the sha- dows trust Him|with- out fear;|
w: Trust His lov- ing wis- dom, though the|hot tears start,|
 [G^c]>[Gc] [Gc]>[Gd] [Gc]>[GB] [FA]>[EG] | [DF]2 [^CE]2 D4 || d4"^Refrain" [GB]2 G2 | %9
w: Tears will change to prais- es as you|count them o’er.||
w: Count the times when Je- sus proved a|friend in- deed.||
w: “Home will be the sweet- er for the|dark down here.”||
w: Give to Him the in- cense of a|grate- ful heart.||
 [Fc]>[Ec] [Dc]>[Ec] [Fc]4 | c4 [FA]2 [DF]2 | [Gd]>[Ad] [Bd]>[Ad] [Gd]4 | d4 [GB]2 [=FG]2 | %13
w: ||||
w: ||||
w: ||||
w: ||||
 [Ec]>[Fc] [Gc]>[Fc] [Ec]4 | [Cc]>[Fc] [GB]>[FA] [GB]>[Gc] [Gd]>G | [GB]2 [DA]2 [DG]4 |] %16
w: |||
w: |||
w: |||
w: |||
V:2
 x8 | x8 | x8 | x4 (F2 C2) x/ | x8 | x8 | x8 | x4 D4 || (G>G) (G>G) x/ G2 x3/2 | x8 | %10
 (F>F) (F>F) x4 | x8 | (G>G) (G>G) x4 | x8 | x15/2 G/ | x8 |] %16
V:3
 G,>G, G,>[G,A,] [G,B,]>[G,A,] [G,B,]>[D,D] | [G,D]2 [G,A,]2 [G,B,]4 | %2
w: ~ ~ ~ ~ ~ ~ ~ ~|~ ~ ~|
 [D,D]>[D,D] [D,D]>[D,D] [D,D]>[D,D] [D,D]>[D,A,] | [A,,A,]2 [A,,^C]2 =C2 ([C,D,-]/ [D,F,]2) | %4
w: ~ ~ ~ ~ ~ ~ ~ ~|~ ~ ~ ~ *|
 G,>G, G,>[G,A,] [G,B,]>[G,A,] [G,B,]>[D,D] | [G,D]2 [G,A,]2 [G,B,]4 | A,>A, A,>A, A,>A, A,>A, | %7
w: ~ ~ ~ ~ ~ ~ ~ *|~ ~ ~|~ ~ ~ ~ ~ ~ ~ ~|
 A,2 [A,,G,]2 [D,F,]4 || ([G,B,]>[G,B,]) ([G,B,]>[G,B,]) [G,D]2 [G,B,]2 | A,>G, F,>G, [D,A,]4 | %10
w: ~ ~ ~|Count- * less * mer- cies!|such a bound- less store!|
 ([D,A,]>[D,A,]) ([D,A,]>[D,A,]) [D,C]2 [D,C]2 | B,>C D>C [G,B,]4 | %12
w: Count- * less * mer- cies!|pressed and run- ning o’er!|
 ([G,B,]>[G,B,]) ([G,B,]>[G,B,]) [G,D]2 [G,B,]2 | G,>F, E,>F, [C,G,]4 | %14
w: Count- * less * mer- cies!|try to count them o’er|
 [D,F,]>[D,A,] [D,D]>[D,D] [G,D]>[G,A,] [G,B,]>[B,,D] | [D,D]2 [D,C]2 [G,,B,]4 |] %16
w: Till you gaze in won- der at your|bound- less store.|
V:4
 G,>G, G,3/2 x9/2 | x8 | x8 | x4 (D,3/2-A,,>A,,) x | G,>G, G,3/2 x9/2 | x8 | %6
 A,>A, A,>A, A,>A, A,>A, | A,2 x6 || x8 | D,2 D,2 x4 | x8 | G,2 G,2 x4 | x8 | C,2 C,2 x4 | x8 | %15
 x8 |] %16

